packages/sources/icons/src/vitamix/equalizer-fill.svg

<svg width="16" height="16" viewBox="0 0 16 16" xmlns="http://www.w3.org/2000/svg"><path fill-rule="evenodd" clip-rule="evenodd" d="M6.00004 1.33331C5.15173 1.33331 4.39564 1.86831 4.11337 2.66828H1.33337V4.00161H4.11337C4.39564 4.80159 5.15173 5.33658 6.00004 5.33658C6.84835 5.33658 7.60444 4.80159 7.88671 4.00161H14.6667V2.66828H7.88671C7.60444 1.86831 6.84835 1.33331 6.00004 1.33331ZM8.11337 7.33495C8.39564 6.53497 9.15173 5.99998 10 5.99998C10.8484 5.99998 11.6044 6.53497 11.8867 7.33495H14.6667V8.66828H11.8867C11.6044 9.46825 10.8484 10.0032 10 10.0032C9.15173 10.0032 8.39564 9.46825 8.11337 8.66828H1.33337V7.33495H8.11337ZM4.11337 12.0016C4.39564 11.2016 5.15173 10.6666 6.00004 10.6666C6.84835 10.6666 7.60444 11.2016 7.88671 12.0016H14.6667V13.3349H7.88671C7.60444 14.1349 6.84835 14.6699 6.00004 14.6699C5.15173 14.6699 4.39564 14.1349 4.11337 13.3349H1.33337V12.0016H4.11337Z"/></svg>

<svg width="16" height="16" xmlns="http://www.w3.org/2000/svg"><path fill-rule="evenodd" clip-rule="evenodd" d="M6 1.333a2 2 0 0 0-1.887 1.335h-2.78v1.334h2.78a2 2 0 0 0 3.774 0h6.78V2.668h-6.78A2 2 0 0 0 6 1.333Zm2.113 6.002a2 2 0 0 1 3.774 0h2.78v1.333h-2.78a2 2 0 0 1-3.774 0h-6.78V7.335h6.78Zm-4 4.667a2 2 0 0 1 3.774 0h6.78v1.333h-6.78a2 2 0 0 1-3.774 0h-2.78v-1.333h2.78Z"/></svg>
